public/assets/img/Vector8.svg

<svg width="500" height="500" viewBox="0 0 69 79" fill="none" xmlns="http://www.w3.org/2000/svg">
<path d="M15.6299 39.4743C17.3824 44.1476 24.4735 53.4294 27.8 57.4861C33.3982 61.6239 46.2985 56.5125 47.0287 47.75C47.759 38.9876 54.3308 28.5213 55.061 19.0286C55.7912 9.53591 50.4954 5.0391 48.2458 3.45082C44.1079 0.529384 28.7736 -3.12104 18.3073 6.85845C7.84099 16.8379 13.4392 33.6327 15.6299 39.4743Z" fill="#E62129"/>
<path d="M20.7447 23.322C19.5374 27.1382 18.0617 29.2638 17.4748 29.8496C17.0555 31.356 17.3239 36.6284 21.7509 45.6666C26.1779 54.7048 34.8308 54.4537 38.6038 53.1984C41.4545 51.6084 47.6088 46.721 49.4198 39.8922C51.6837 31.3561 49.6714 21.0625 48.1622 18.5519C46.6529 16.0412 42.1253 13.2796 38.6038 16.0412C35.0823 18.8029 30.3031 17.2965 28.0393 17.2965C25.7755 17.2965 22.254 18.5519 20.7447 23.322Z" fill="#EE6A6F"/>
<path d="M21.8984 66.2784L25.7929 50.9441L43.5612 49.4837L48.4293 66.2784C46.9689 67.9823 42.4416 71.6333 36.0158 72.6069C29.5899 73.5805 23.9268 68.7936 21.8984 66.2784Z" fill="#EE6A6F"/>
<path d="M35.529 53.8649C32.024 54.2544 27.5778 51.9989 25.7929 50.9441L21.8984 65.7916L44.5348 52.8913L43.5612 49.4837C42.3442 50.7818 39.0339 53.4755 35.529 53.8649Z" fill="#E14046"/>
<path d="M6.32049 72.1379C11.1885 67.6593 18.734 65.5661 21.8982 65.0793C22.7907 67.6756 26.8832 72.2346 34.6721 72.0398C42.4609 71.8451 46.6086 67.5133 47.9879 65.0793C49.1238 65.0793 52.5669 65.5174 56.4614 67.2699C60.3558 69.0224 66.3597 75.6267 68.8749 78.7098H0.478841C0.397707 78.3853 1.45245 76.6165 6.32049 72.1379Z" fill="#E62129"/>
</svg>

<svg width="500" height="500" viewBox="0 0 69 79" fill="none" xmlns="http://www.w3.org/2000/svg"><path d="M15.63 39.474c1.752 4.674 8.844 13.955 12.17 18.012 5.598 4.138 18.498-.973 19.229-9.736.73-8.762 7.302-19.229 8.032-28.721.73-9.493-4.566-13.99-6.815-15.578C44.108.529 28.774-3.121 18.307 6.858c-10.466 9.98-4.868 26.775-2.677 32.616Z" fill="#E62129"/><path d="M20.745 23.322c-1.208 3.816-2.683 5.942-3.27 6.528-.42 1.506-.151 6.778 4.276 15.817 4.427 9.038 13.08 8.787 16.853 7.531 2.85-1.59 9.005-6.477 10.816-13.306 2.264-8.536.251-18.83-1.258-21.34-1.51-2.51-6.037-5.272-9.558-2.51-3.522 2.76-8.3 1.255-10.565 1.255-2.264 0-5.785 1.255-7.294 6.025Z" fill="#EE6A6F"/><path d="m21.898 66.278 3.895-15.334 17.768-1.46 4.868 16.794c-1.46 1.704-5.987 5.355-12.413 6.329-6.426.974-12.09-3.813-14.118-6.329Z" fill="#EE6A6F"/><path d="M35.529 53.865c-3.505.39-7.951-1.866-9.736-2.92l-3.895 14.847 22.637-12.9-.974-3.408c-1.217 1.298-4.527 3.991-8.032 4.38Z" fill="#E14046"/><path d="M6.32 72.138c4.868-4.479 12.414-6.572 15.578-7.059.893 2.597 4.985 7.156 12.774 6.96 7.789-.194 11.937-4.526 13.316-6.96 1.136 0 4.579.438 8.473 2.19 3.895 1.753 9.899 8.358 12.414 11.44H.479c-.081-.324.973-2.093 5.841-6.571Z" fill="#E62129"/></svg>
